X:1
T:Musica proibita
T:Musica proibita
T:Stanislao Gastaldon
T:Flick Flock
T:by IMSLP - Pubblico dominio
T:by IMSLP - Pubblico dominio
T:by IMSLP - Pubblico dominio
T:by IMSLP - Pubblico dominio
T:by IMSLP - Pubblico dominio
T:by IMSLP - Pubblico dominio
C:Stanislao Gastaldon
Z:Flick Flock
Z:by IMSLP - Pubblico dominio
%%score 1 { ( 2 5 ) | ( 3 4 ) }
L:1/8
Q:1/4=70
M:4/4
K:G
V:1 treble nm="Voice"
V:2 treble nm="Piano"
V:5 treble 
V:3 bass 
V:4 bass 
V:1
"^Andante affettuoso" z4 | z8 | z8 | z8 | z8 | z8 | z8 | z8 | z8 | z8 | %10
w: ||||||||||
"^CANTO" z4!p! z2"^Quasi parlato" D D | B2 (B B c B G A | B2) B2 z (B c d | %13
w: O\- gni|se\- ra di sot\- toal mio bal\-|co\- ne sen\- to can\-|
 G2) z (G A B A3/2 (E/) | F2) F2 z2 z D | (B B B B c B G A) | B2 B2 z3/2!<(! G/ G/ G/ G/ G/!<)! | %17
w: tar u\- na can\- zon d'a\-|mo\- re, più|vol\- te la ri\- pete un bel gar\-|zo\- ne e bat\- te\- re mi|
!f!!>(! c4 B2!>)! G!<(! (G |!f! e3)!>(! d3!<)! (5:4:5G/ G/ G/ A/ B/!>)! | %19
w: sen\- to for\- teil|co\- re. E bat\- tr\- re mi|
!pp! A4-"^rall.   .   .   .   .   .   .   .   ." A G F3/2 (E/ | %20
w: sen\- * to for\- teil|
 !fermata!A4)!f!"^con slancio" B2 c>B | A2- A G F A G3/2 ^D/ | (F2 E2)!p!"^con entusiasmo" c2 B A | %23
w: cor. Oh quan\- to~è|dol\- * ce quel\- la me\- lo\-|di\- a oh com' è|
 G2 F2 (A G F E) | E2 D2"^Più animato"!mf!!<(! B B- B3/2!<)! B/ |!f! ^d2 d d e e d3/2 ^c/ | %26
w: bel\- la, quan\- to m'è gra\-|di\- ta! Ch'i\- o * la|can\- ti non vuol la mam\- ma|
 ^d2 d2 z (d ^c B | _B2) z (B =c c B3/2 _A/) | %28
w: mi\- a: Vor\- rei sa\-|per per\- ché me l'ha proi\-|
 G G z2"^affrett.   .   .   .   .   .   .   ." G2 G G | G2 z A =A A"^cresc." A A | %30
w: bi\- ta? El\- la non|c'è ed io la vo' can\-|
 _B2 z (B c c =d _e) |"^1°  tempo" _e (_B G _A G3 =F | _E2) z2 z4 | z4!pp!"^più presto" G2 G G || %34
w: tar la fra\- se che m'ha|fat\- to pal\- pi\- ta\- _|re:|Vor\- rei\- ba\-|
[K:C] (G2 G) (A B c B3/2 A/ | A2 A2) z (B{/d} c B) | G2 z (G ^G B"^rall...." A3/2 D/) | %37
w: cia\- * rei tuoi ca\- pel\- li|ne\- ri, le lab\- bra|tue e glioc\- chi tuoi se\-|
 E2 E2!<(! G2 G G!<)! |!ff! (e2 e)"^stent..." e f e d3/2 ^c/ | d2 d2"^sotto voce"!p! c4 | %40
w: ve\- ri, vor\- rei mo\-|rir * con te an\- gel di|Di\- o, o|
 (c G G E E D)"^rall.   .   .   .   ." G G | G G"^1° tempo" z G2 G G z | A2 A2 B B A G | %43
w: bel\- lain na\- mo\- ra\- ta, te sor|mi\- o. Qui sot\- toil|vi\- di ie\- ria pas\- seg\-|
 G2 G2 G2 G G | B B z!<(! B c c B3/2 A/!<)! | !fermata!d4- d!pp!"^Presto" G"^con anima" G G | %46
w: gia\- re e lo sen\-|ti\- va al so\- li\- to can\-|tar... * Vor\- rei ba\-|
 G2- G (A B c B3/2 A/ | A2) A2 z (B{/d} c B) | F2 z (G"^rall." ^G B A3/2 D/) | %49
w: cia\- * rei tuoi ca\- pel\- li|ne\- ri, le lab\- bra|tue e glioc\- chi tuoi se\-|
 E2 E2!<(! G2 G G!<)! |!ff! e2- e e f"^stent..." e d3/2 ^c/ | d2 d2"^con slancio" d2 e3/2 f/ | %52
w: ve\- ri; Strin\- gi\- mio|ca\- * ra, strin\- gi\- mial tuo|co\- re fam\- mi pro\-|
 g3 e e e"^ten:" e3/2 d/ |!ff! c2 z2 !fermata!z4 |] %54
w: var l'eb\- brez\- ze del\- l'a\-|mor.|
V:2
!pp! d2 d2 | d2- d(e fg f>e | e2 e2) z (f{/a}gf) | c3 d (^dfeA | B2) B2 d2 dd | %5
 [Bb]2- [Bb]([Bb] [cc'][Bb] [Aa][^G^g]) | [Aa]2 [Aa]2!pp! g2 g2 | %7
 (g2 dB) (B/!<(!A/^G/A/)"^ten:" c>B!<)! |!>(! !^![EG] !^![EG]2 !^![EG]2 !^![EG]2 !^![EG]!>)! | %9
 [_B,DG]4 [B,_EG]4 | [A,DG]4 [A,DF]2 z2 | %11
!p! (.[B,DG].[DGB].[DGB].[DGB]) (.[EGc].[DGB].[B,DG].[CFA]) | %12
 (.[B,GB].[DGB].[DGB].[DGB]) ((.[DGB].[DGB].[DGB].[DGB])) | %13
 ((.[EGB].[EGB].[EGB].[EGB])) ((.[EGA].[EGA].[^CEGA].[CEGA])) | %14
 (.[=CDFA].[CDFA].[CDFA].[CDFA]) (.[CDFA].D{/F}.E.D) | %15
 (.[DGB].[DGB].[DGB].[DGB]) (.[EGc].[DGB].[B,DG].[CFA]) | %16
 (.[B,GB].[DGB].[DGB].[DGB])!<(! (.[DGB].[DGB].[DGB].[EGB]) | %17
!f! (.[EGc]!<)!!>(!.[EGc].[EGc].[EGc]) (.[DGB]!>)!.[DGB]!<(!.[DGB].[EGB]) | %18
 .[Ece].[Ece].[Ece].[Ece]!<)!!>(! .[DBd].[DBd].[DBd].[DBd]!>)! | %19
 (.[DGA^c].[DGAc].[DGAc].[DGAc]) (.[DGAc].[DGAc].[DGAc].[DGAc]) | %20
 !fermata![FA=c]4!f! [Bb]2 [cc']>[Bb] | [Aa]2- [Aa][Gg] [Ff][Aa] [Gg]>[^D^d] | %22
 [Ff]2 [Ee]2!p! [cc']2 [Bb][Aa] | [Gcg]2 [Fcf]2 [Aca][Gcg][Fcf][Ece] | %24
 [EBe]2 [DBd]2 z/ G/!<(!(d/B/ g/d/B/!<)!G/) |!f! z/ F/(^d/B/ f/d/B/F/) z/ F/(e/^A/ f/e/A/F/) | %26
 z/ F/(^d/B/ g/d/B/F/) z/ F/(e/B/ f/e/B/F/) | z/ G/(_e/_B/ g/e/B/G/) z/ _A/(d/B/ _a/d/B/A/) | %28
 z [_EG]!>!_e[EG] z [EG]!>!e[EG] | z [_E_A]!>!_e[EA] z [E=A]!>!e[E_A] | %30
 z [_E_B]!>!_e[EB] z [E_G]!>!e[EG] | z [_EG]_e[EG] z [_B,D]_B[B,D] | %32
 z/ _B,/G/_E/ ._B.B z/ B,/G/^C/ .B.B | z/ =B,/G/D/ .=B2 z4 || %34
[K:C] [G,G]/[CE]/[CE]/[CE]/ [G,B]/[EG]/[A,B]/[EG]/ [B,B]/[EG]/[Cc]/[EG]/ [B,B]/[EG]/[A,A]/[EG]/ | %35
 [A,A]/[CE]/[CE]/[CE]/ [A,A]/[DF]/[DF]/[DF]/ [A,A]/[EG]/[B,B]/[EG]/ [Cc]/[EG]/[B,B]/[EG]/ | %36
 [G,G]/[B,D]/[B,D]/[B,D]/ [F,F]/[B,D]/[G,G]/[B,D]/ [^G,^G]/[DF]/[B,B]/"^rall...."[DF]/ [A,B]/[E=G]/[F,A]/[G,B,]/ | %37
 !^![E,E]/[G,C]/[G,C]/[G,C]/ !^![E,E]/[G,C]/[G,C]/[G,C]/ !^![G,G]/[B,E]/[B,E]/[B,E]/ [G,G]/[CE]/[G,G]/[CE]/ | %38
!ff! e2 ee ee d^c | !^!d2 !^!d2!pp! !^!d2 !^!d2 | !^!c2 !^!c2 !^!B2 !^!B2 | %41
 z/ .[EG]/.[EG]/.[EG]/ .c'.c'!p! z/ .[EG]/.[EG]/.[EG]/ .c'.c' | %42
 z/ .[EG]/.[EG]/.[EG]/ .c'.c' z/ .[GB]/.[GB]/.[GB]/ .b.b | %43
 z/ .[Gc]/.[Gc]/.[Gc]/ .c'.c' z/ (E/G/_B/ e/B/G/E/) | %44
 z/ (D/G/B/ d/B/G/D/) z/!<(! (D/^F/c/ d/c/F/E/)!<)! | !///-!!fermata![GBd]2 D2 !>![GBdf]2 z2 | %46
 g2 ga bc' ba | !^!a2 !^!a2 ab c'b | !^!f!^!f !^!f!^!g !^!^g!^!b !^!a!^!d | %49
 !^!e2 !^!e2!<(! !^![Gg]/[ce]/[ce]/[ce]/ !^!g!^!g!<)! |!ff!!8va(! e'2 e'e' f'e' d'^c' | %51
 d'2 d'2 d'2 !^!e'!^!f' |!ff! !^!g'2 !^!g'!^!e' !^!e'!^!e' !^!e'>!^!d' | %53
!ff! !^!c'2!ff! .[c'e'g'c'']2 !fermata!z4!8va)! |] %54
V:3
 G,,/(D,/G,/B,/ D/B,/G,/)D,/ | G,,/(D,/G,/B,/ D/B,/G,/)D,/ B,,/(D,/G,/B,/ D/B,/G,/)D,/ | %2
 A,,/(E,/A,/C/ E/C/A,/)E,/ A,,/(E,/A,/C/ E/C/A,/)E,/ | %3
 D,/(F,/A,/C/ D/C/A,/)F,/ D,/(F,/A,/C/ D/C/A,/)F,/ | %4
 G,,/(D,/G,/B,/ D/B,/G,/)D,/"^animandosi" !>![B,,G,]/G,/(B,/D/) [=F,,=F,]/(G,/B,/D/) | %5
 [E,,E,]/(E,/^G,/D/ E/D/G,/E,/)"^stentato" ([E,,E,]/E,/G,/D/ E/D/G,/E,/) | %6
 A,,/(E,/A,/C/ E/C/A,/)E,/ C,/(_E,/A,/C/ _E/C/A,/)E,/ | %7
 [D,,D,]/(D,/G,/B,/ D/B,/G,/)D,/ [D,,D,]/(D,/F,/C/ D/C/F,/)D,/ | %8
 [_B,^C] [B,C]2 [B,C]2 [B,C]2 [B,C] | [D,,D,]4 [C,,^C,]4 | [D,,D,]4 [D,,D,]2 z2 | [G,,G,]4 z4 | %12
 [G,,G,]4 z4 | [E,,E,]4 [A,,A,]4 | [D,,D,]4- [D,,D,]2 z2 | [G,,G,]4 z4 | [G,,G,]4 z4 | %17
 (C,2 C,/)(D,/E,/F,/) [G,,G,]4 |!f! [C,,C,]2- .[C,,C,]/.[D,,D,]/.[E,,E,]/.[F,,F,]/ [G,,G,]4 | %19
"^rall.   .   .   .   .   .   .   ." [A,,A,]4 [A,,A,]4 | %20
 !fermata![D,,D,]4!ped! !^![G,,,G,,]/(B,,/D,/G,/ B,).[D,G,B,] | %21
 !^![B,,,B,,]/(B,,/D,/G,/ B,).[D,G,B,]!ped-up!!ped! !^![B,,,B,,]/(B,,/D,/G,/ B,).[D,G,B,]!ped-up! | %22
!ped! !^![C,,C,]/(C,/E,/A,/ C).[E,A,C] !^![A,,,A,,]/(C,/E,/A,/ C).[E,A,C]!ped-up! | %23
!ped! !^![D,,D,]/(D,/F,/C/ D).[F,CD] !^![D,,D,]/(D,/F,/C/ D).[F,C]!ped-up! | %24
!ped! G,,/(B,,/D,/G,/ B,/G,/D,/B,,/)!mf! [G,,G,][D,G,B,][D,G,B,][D,G,B,]!ped-up! | %25
!ped! [F,,F,][F,B,^D][F,B,D][F,B,D]!ped-up!!ped! [F,,,F,,][F,CE][F,CE][F,CE]!ped-up! | %26
 [B,,,B,,][F,B,^D][F,B,D][F,B,D] [B,,,B,,][F,CE][F,CE][F,CE] | %27
 [_B,,,_B,,][G,_B,_E][G,B,E][G,B,E] [B,,,B,,][_A,B,D][A,B,D][A,B,D] | %28
 [_E,,_E,]4"^affrett.   .   .   .   .   ." (([_D,_D]4 | (([C,C]4)) (([_C,_C]4)) | %30
"^cresc." (([_B,,_B,]4)) (([=A,,=A,]4)) | [_B,,_B,]4)) [_B,,,B,,]4 | %32
 [_E,G,]3 [E,G,] [=E,G,]3 [E,G,] | [=F,G,]4 z4 ||[K:C] !^![C,,C,]4 [E,,E,]4 | %35
 !^![D,,D,]4 !^![D,,D,]4 | [G,,,G,,]4 [G,,,G,,]4 | [C,,C,]4!<(! [C,,C,]4!<)! | %38
!ped! [^C,,^E,].[E,G,B,].[E,G,B,].[E,G,B,]!ped-up!"^stent..."!ped! [A,,,A,,].[E,A,B,].[E,A,B,].[E,A,B,]!ped-up! | %39
!ped! [D,,B,,][D,F,A,][D,F,A,][D,F,A,]!ped-up! [F,,F,]4 | [G,,G,]4 [G,,,G,,]4 | %41
 ([C,,C,]G,[CE]G,) (C,G,[CE]G,) | ([F,,F,]C[A,F]C) ([G,,G,]G,[B,F]G,) | %43
 (C,G,[CE]G,) !^![^C,,^C,]2 !^![E,G,_B,]2 | !^![D,,D,]2 !^![D,G,B,]2 !^![D,,D,]2 !^![D,^F,C]2 | %45
 !///-!!fermata!G,,,2 G,,2 !>![G,,,G,,]2 z2 | %46
!ped! [C,,C,][G,CE][G,CE][G,CE] [E,,C,][G,CE][G,CE][G,CE]!ped-up! | %47
!ped! [D,,D,][G,CE][G,CE][G,CE] [D,,D,][G,CE][G,CE][G,CE]!ped-up! | %48
!ped! [G,,G,][G,B,D][G,B,D][G,B,D] [G,,G,][G,B,F][G,B,F][F,G,A,]!ped-up! | %49
!ped! [C,,C,][E,G,C][E,G,C][E,G,C] [C,,C,][G,CG][G,CG][G,CG]!ped-up! | %50
!ped! [^C,,^C,][G,_B,^CE][G,B,CE][G,B,CE]!ped-up!!ped! [A,,,A,,][G,A,C][G,A,D][G,A,E]!ped-up! | %51
!ped! [D,,D,][F,A,D][F,A,D][F,A,D]!ped-up!!ped! [F,,F,][_A,DF][A,DF][A,DF]!ped-up! | %52
!ped! [G,,G,][G,CE][G,CE][G,CE]!ped-up!!ped! [G,,,G,,][G,B,F][G,B,F][G,B,F]!ped-up! | %53
!ped! [C,,C,][G,CE] .[C,,,D,,]2 !fermata!z4!ped-up! |] %54
V:4
 x4 | x8 | x8 | x8 | x8 | x8 | x8 | x8 | E, E,2 E,2 E,2 E, | x8 | x8 | x8 | x8 | x8 | x8 | x8 | %16
 x8 | x8 | x8 | x8 | x8 | x8 | x8 | x8 | x8 | x8 | x8 | x8 | x8 | x8 | x8 | x8 | x8 | x8 || %34
[K:C] x8 | x8 | x8 | x8 | x8 | x8 | x8 | x8 | x8 | x8 | x8 | x8 | x8 | x4 z4 | x8 | x8 | x8 | x8 | %52
 x8 | x8 |] %54
V:5
 x4 | x8 | x8 | x8 | x8 | x8 | x8 | x8 | x8 | x8 | x8 | x8 | x8 | x8 | x8 | x8 | x8 | x8 | x8 | %19
 x8 | x8 | x8 | x8 | x8 | x8 | x8 | x8 | x8 | x8 | x8 | x8 | x8 | x8 | x8 || %34
[K:C] G,2 !^!G,!^!A, !^!B,!^!C !^!B,!^!A, | !^!A,2 !^!A,2 !^!A,!^!B, !^!C!^!B, | %36
 G,2 !^!F,!^!G, !^!^G,!^!B, !^!A,!^!F, | x6 !^!G,!^!G, | %38
 !^![Ee]/[G_B]/[GB]/[GB]/ !^![Ee]/[GB]/!^![Ee]/[GB]/ !^![De]/[FG^c]/!^![De]/[AB]/ !^![Dd]/[GA]/!^![^C^c]/[GA]/ | %39
 [B,d]/[FA]/[FA]/[FA]/ [Dd]/[FA]/[FA]/[FA]/ [Cd]/[F_A]/[FA]/[FA]/ [Cd]/[FA]/[FA]/[FA]/ | %40
 [Cc]/[FA]/[FA]/[FA]/ [Cc]/[FA]/[FA]/[FA]/ [B,B]/[FG]/[FG]/[FG]/ [B,B]/[FG]/[FG]/[FG]/ | x8 | x8 | %43
 x8 | x8 | x8 | %46
 !^![Gg]/[ce]/[ce]/[ce]/ !^![Gg]/[ce]/!^![Aa]/[ce]/ !^![Bb]/[eg]/!^![Bc']/[eg]/ !^![Ab]/[df]/!^![Aa]/[eg]/ | %47
 [Aa]/[ce]/[ce]/[ce]/ [Aa]/[ce]/[ce]/[ce]/ !^![Aa]/[df]/!^![Bb]/[df]/ !^![cc']/[df]/!^![Bb]/[df]/ | %48
 [Ff]/[Bd]/[Ff]/[Bd]/ [Ff]/[Bd]/[Gg]/[Bd]/ [^G^g]/[df]/[Bb]/[df]/ [Aa]/[df]/[Dd]/[GB]/ | %49
 [Ee]/[Gc]/[Gc]/[Gc]/ [Ee]/[Gc]/[Gc]/[Gc]/ x2 [Gg]/[ce]/[Gg]/[ce]/ | %50
!8va(! !^![ee']/[g_b]/[gb]/[gb]/ !^![ee']/[gb]/!^![ee']/[gb]/ !^![df']/[ab]/!^![de']/[ab]/ !^![dd']/[ga]/!^![^c^c']/[ga]/ | %51
 !^![dd']/[fa]/[fa]/[fa]/ !^![dd']/[fa]/[fa]/[fa]/ !^![dd']/[f_a]/[fa]/[fa]/ [ee']/[fa]/[ff']/[ad']/ | %52
 [gg']/[c'e']/[c'e']/[c'e']/ [gg']/[c'e']/[ee']/[ac']/ [ee']/[gb]/[ee']/[gb]/ [ee']/[gb]/[gb]/[dd']/ | %53
 [cc']/[eg]/[eg]/[eg]/ x6!8va)! |] %54

